X:1
T:Title
%%score ( 1 2 ) ( 3 4 )
L:1/8
Q:1/4=110
M:4/4
K:F
V:1 treble nm="Grand Piano, Soprano"
V:2 treble 
V:3 bass nm="Choir Pad, Pray"
V:4 bass 
V:1
 [FA]4 F-[FG] z G | [FA]2 [FA]2 [CF]2 [CF]2 | [EG]2 [EG]2 [EG]2 [FA]2 | [EG]8 | [FA]4 AG z G | %5
w: By~James~A.~Brown * * *|||||
 [FA]2 [FA]2 [CF]2 z G | [FA]2 [FA]2 [FA]2 [CG]2 | [CF]8 | [Fc]4 [Fc]3 [Fd] | %9
w: ||||
 [Fc]2 [FA]2 [CF]2 AG | z4 .F2 z2 | [Fc]8 | [Fc]4 [Fc]3 [FA] | [Fc]2 [Fc]2 [FA]2 FG | %14
w: |||||
 [FA]2 [FA]2 [FA] [CG]3 | [CF]8 |] %16
w: ||
V:2
 z4 .A2 F2 | x8 | x8 | x8 | z4 F2 F2 | z4 z2 F2 | x8 | x8 | x8 | z4 z2 F2 | [CF]2 C2 C-[CG] [FA]2 | %11
 x8 | x8 | x8 | x8 | x8 |] %16
V:3
 [F,C]4 CB,A,C | [F,C]2 [F,C]2 [F,A,]2 [F,A,]2 | [C,C]2 [C,C]2 [C,C]2 [F,C]2 | [C,C]8 | %4
 [F,C]4 CB,A,C | [F,C]2 [F,C]2 [F,A,]2 [D,=B,]2 | [C,C]2 [C,C]2 [C,C]2 [C,B,]2 | [F,A,]8 | %8
 [F,A,]4 [F,A,]3 [F,B,] | [F,A,]2 [F,C]2 [F,A,]2 CB, | [F,A,]2 [F,A,]2 A,B, [F,C]2 | [F,A,]8 | %12
 [F,A,]4 [F,A,]3 [F,C] | [F,A,]2 [F,A,]2 [F,C]2 [D,=B,]2 | [C,C]2 [C,C]2 [C,C] [C,B,]3 | [F,A,]8 |] %16
V:4
 z4 F,2 F,2 | x8 | x8 | x8 | z4 F,2 F,2 | x8 | x8 | x8 | x8 | z4 z2 F,2 | z4 F,2 z2 | x8 | x8 | %13
 x8 | x8 | x8 |] %16

